X:724
T:Mrs. Morthland
R:Reel
B:The Athole Collection
M:C|
L:1/8
K:G Minor
D|G2GA BcdB|A2Af AfcA|G2GA Bcdg|fdcA G/G/G G:|
d|~gdga b2ag|fcfg a2gf|gdga b2ag|fdcA G/G/G G2|gdga gabg|
~fgag ~fdcf|dfga gfga|fdcA G/G/G G||

